Origami/64x64/apps/half-life.svg

<svg xmlns="http://www.w3.org/2000/svg" width="64" height="64" version="1">
 <path style="opacity:0.2" d="m 4.0507997,32.000415 c -0.012,0.333995 -0.050799,0.66199 -0.050799,0.999985 C 4.0000004,48.43218 16.568421,61 31.9996,61 47.431379,61 59.9992,48.43218 59.9992,33.0004 c 0,-0.337995 -0.038,-0.66599 -0.05,-0.999985 -0.533992,14.967786 -12.855816,26.999614 -27.9496,26.999614 -15.093984,0 -27.4156079,-12.031828 -27.9496003,-26.999614 z"/>
 <path style="fill:#f37b21" d="m 31.9996,4.0008294 c -15.431779,0 -27.9995996,12.5684206 -27.9995996,27.9995996 0,15.431779 12.5684206,27.9996 27.9995996,27.9996 15.431779,0 27.9996,-12.567821 27.9996,-27.9996 0,-15.431179 -12.567821,-27.9995996 -27.9996,-27.9995996 z"/>
 <path style="opacity:0.2" d="M 32,13 A 19.999714,19.999714 0 0 0 12,33 19.999714,19.999714 0 0 0 32,53 19.999714,19.999714 0 0 0 52,33 19.999714,19.999714 0 0 0 32,13 Z m -8,6 2.763672,0 3.476562,0 0.404297,0 8.935547,21.810547 4.671875,-1.876953 1.490235,3.71289 L 37.390625,46 l 0,-0.002 L 37.384766,46 31.546875,31.767578 21.335938,47 18,44.992188 29.712891,27.292969 27.951172,23 24,23 24,19 Z"/>
 <path style="fill:#ffffff" d="M 32 12 A 19.999714 19.999714 0 0 0 12 32 A 19.999714 19.999714 0 0 0 32 52 A 19.999714 19.999714 0 0 0 52 32 A 19.999714 19.999714 0 0 0 32 12 z M 24 18 L 26.763672 18 L 30.240234 18 L 30.644531 18 L 39.580078 39.810547 L 44.251953 37.933594 L 45.742188 41.646484 L 37.390625 45 L 37.390625 44.998047 L 37.384766 45 L 31.546875 30.767578 L 21.335938 46 L 18 43.992188 L 29.712891 26.292969 L 27.951172 22 L 24 22 L 24 18 z"/>
 <path style="opacity:0.2;fill:#ffffff" d="m 31.9996,4.0008294 c -15.431779,0 -27.9995996,12.5684206 -27.9995996,27.9995996 0,0.337995 0.038799,0.66599 0.050799,0.999986 C 4.5835921,18.033629 16.905216,6.0008008 32.0004,6.0008008 47.094184,6.0008008 59.416008,18.033429 59.95,33.000415 59.962,32.666419 60,32.338424 60,32.000429 60,16.56925 47.432179,4.0008294 32.0004,4.0008294 Z"/>
</svg>

<svg width="64" height="64" version="1" xmlns="http://www.w3.org/2000/svg">
 <path d="m4.0507997 32.000415c-0.012 0.333995-0.050799 0.66199-0.050799 0.999985-3e-7 15.43178 12.56842 27.9996 27.999599 27.9996 15.431779 0 27.9996-12.56782 27.9996-27.9996 0-0.337995-0.038-0.66599-0.05-0.999985-0.533992 14.967786-12.855816 26.999614-27.9496 26.999614-15.093984 0-27.415608-12.031828-27.9496-26.999614z" style="opacity:.2"/>
 <path d="m31.9996 4.0008294c-15.431779 0-27.9996 12.568421-27.9996 27.9996 0 15.431779 12.568421 27.9996 27.9996 27.9996 15.431779 0 27.9996-12.567821 27.9996-27.9996 0-15.431179-12.567821-27.9996-27.9996-27.9996z" style="fill:#f37b21"/>
 <path d="M 32,13 A 19.999714,19.999714 0 0 0 12,33 19.999714,19.999714 0 0 0 32,53 19.999714,19.999714 0 0 0 52,33 19.999714,19.999714 0 0 0 32,13 Z m -8,6 2.763672,0 3.476562,0 0.404297,0 8.935547,21.810547 4.671875,-1.876953 1.490235,3.71289 L 37.390625,46 l 0,-0.002 L 37.384766,46 31.546875,31.767578 21.335938,47 18,44.992188 29.712891,27.292969 27.951172,23 24,23 24,19 Z" style="opacity:.2"/>
 <path d="m32 12a19.999714 19.999714 0 0 0 -20 20 19.999714 19.999714 0 0 0 20 20 19.999714 19.999714 0 0 0 20 -20 19.999714 19.999714 0 0 0 -20 -20zm-8 6h2.763672 3.476562 0.404297l8.935547 21.810547 4.671875-1.876953 1.490235 3.71289-8.351563 3.353516v-0.001953l-0.005859 0.001953-5.837891-14.232422-10.210937 15.232422-3.335938-2.007812 11.712891-17.699219-1.761719-4.292969h-3.951172v-4z" style="fill:#ffffff"/>
 <path d="m31.9996 4.0008294c-15.431779 0-27.9996 12.568421-27.9996 27.9996 0 0.337995 0.038799 0.66599 0.050799 0.999986 0.5327927-14.966786 12.854417-26.999614 27.949601-26.999614 15.093784 0 27.415608 12.032628 27.9496 26.999614 0.012-0.333996 0.05-0.661991 0.05-0.999986 0-15.431179-12.567821-27.9996-27.9996-27.9996z" style="fill:#ffffff;opacity:.2"/>
</svg>
